places/scalable/folder-yellow-recent.svg

<svg xmlns="http://www.w3.org/2000/svg" style="isolation:isolate" width="256" height="256"><path d="M53.039 21C16.724 21 13 23.055 13 59.371v52.167h230V79.563c0-36.316-3.724-42.102-40.039-42.102h-89.336L97.198 21H53.039z" fill="#eab305"/><path d="M53.039 70.384C16.722 70.384 13 74.114 13 110.429v84.524C13 231.269 16.722 235 53.039 235h149.922c36.317 0 40.039-3.731 40.039-40.047V93.969c0-36.316-3.722-40.047-40.039-40.047H119.53l-16.438 16.462H53.039z" fill="#fdc92b"/><linearGradient id="a" y1=".5" x2="0" y2="-.5" gradientTransform="matrix(230 0 0 181.078 13 53.922)" gradientUnits="userSpaceOnUse"><stop offset="0%" stop-opacity=".07" stop-color="#fff"/><stop offset="67.282%" stop-opacity="0" stop-color="#fcefe8"/></linearGradient><path d="M53.039 70.384C16.722 70.384 13 74.114 13 110.429v84.524C13 231.269 16.722 235 53.039 235h149.922c36.317 0 40.039-3.731 40.039-40.047V93.969c0-36.316-3.722-40.047-40.039-40.047H119.53l-16.438 16.462H53.039z" fill="url(#a)"/><g opacity=".4"><radialGradient id="b" fx=".5" fy=".136" cx=".5" cy=".5" r=".272" gradientTransform="matrix(230 0 0 60.62 13 21)" gradientUnits="userSpaceOnUse"><stop offset="0%" stop-color="#fff"/><stop offset="100%" stop-opacity=".204" stop-color="#fff"/></radialGradient><path d="M53.039 21C16.724 21 13 23.055 13 59.371v2.059c0-36.316 3.724-38.373 40.039-38.373h44.159l16.427 16.461h89.336c36.315 0 40.039 5.786 40.039 42.102v-2.057c0-36.316-3.724-42.102-40.039-42.102h-89.336L97.198 21H53.039z" fill="url(#b)"/></g><g opacity=".4"><radialGradient id="c" fx=".482" fy=".211" cx=".5" cy=".5" r=".272" gradientTransform="matrix(230 0 0 58.565 13 53.922)" gradientUnits="userSpaceOnUse"><stop offset="0%" stop-color="#fff"/><stop offset="100%" stop-opacity=".204" stop-color="#fff"/></radialGradient><path d="M119.53 53.922l-16.438 16.462H53.039C16.724 70.384 13 74.112 13 110.427v2.06c0-36.316 3.724-40.046 40.039-40.046h50.053l16.438-16.46h83.431c36.315 0 40.039 3.727 40.039 40.043v-2.057c0-36.316-3.724-40.045-40.039-40.045H119.53z" fill="url(#c)"/></g><path d="M243 167.096l-65.715 65.845h25.676c36.315 0 40.039-3.727 40.039-40.043v-25.802z" fill="#FFF" opacity=".1"/><path d="M13 192.898v2.057C13 231.271 16.724 235 53.039 235h149.922c36.315 0 40.039-3.729 40.039-40.045v-2.057c0 36.316-3.724 40.043-40.039 40.043H53.039c-36.315 0-40.039-3.727-40.039-40.043z" opacity=".2"/><g opacity=".62"><path d="M127.9 92c-15.851 0-30.21 6.152-40.948 16.144l-8.214-8.208a275.93 275.93 0 0 0-5.177 15.864 332.412 332.412 0 0 0-4.255 16.2c5.361-1.2 10.778-2.6 16.267-4.184 5.529-1.624 10.81-3.368 15.827-5.24l-8.759-8.76A51.861 51.861 0 0 1 127.9 100c28.8 0 52.087 23.248 52.087 52S156.7 204 127.9 204c-27.21.015-49.832-20.913-51.887-48H68c2.061 31.51 28.27 56.012 59.9 56 33.231 0 60.1-26.824 60.1-60s-26.869-60-60.1-60zm-4.007 24v41.656l19.2 19.176 5.674-5.664-16.86-16.824V116h-8.014zm48.882 87.76l.216.288-.112-.176-.104-.104v-.008zm-97.843.04c-.025.04-.081.072-.104.104l-.113.176.217-.28z" fill="#333"/></g></svg>

<?xml version="1.0" standalone="no"?><!-- Generator: Gravit.io -->
<svg xmlns="http://www.w3.org/2000/svg" 
  xmlns:xlink="http://www.w3.org/1999/xlink" style="isolation:isolate" viewBox="0 0 256 256" width="256" height="256">
  <switch>
    <g>
      <g id="folder">
        <path d=" M 53.039 21 C 16.724 21 13 23.055 13 59.371 L 13 111.538 L 243 111.538 L 243 79.563 C 243 43.247 239.276 37.461 202.961 37.461 L 113.625 37.461 L 97.198 21 L 53.039 21 Z " id="orange" fill="#eab305"/>
        <path d=" M 53.039 70.384 C 16.722 70.384 13 74.114 13 110.429 L 13 194.953 C 13 231.269 16.722 235 53.039 235 L 202.961 235 C 239.278 235 243 231.269 243 194.953 L 243 93.969 C 243 57.653 239.278 53.922 202.961 53.922 L 119.53 53.922 L 103.092 70.384 L 53.039 70.384 Z " id="change-color-easy" fill="#fdc92b"/>
        <linearGradient id="_lgradient_34" x1="0" y1="0.5" x2="2.83276944882399e-16" y2="-0.5" gradientTransform="matrix(230,0,0,181.078,13,53.922)" gradientUnits="userSpaceOnUse">
          <stop offset="0%" stop-opacity="0.07" style="stop-color:rgb(255,255,255)"/>
          <stop offset="67.28219512106674%" stop-opacity="0" style="stop-color:rgb(252,239,232)"/>
        </linearGradient>
        <path d=" M 53.039 70.384 C 16.722 70.384 13 74.114 13 110.429 L 13 194.953 C 13 231.269 16.722 235 53.039 235 L 202.961 235 C 239.278 235 243 231.269 243 194.953 L 243 93.969 C 243 57.653 239.278 53.922 202.961 53.922 L 119.53 53.922 L 103.092 70.384 L 53.039 70.384 Z " id="gradient white" fill="url(#_lgradient_34)"/>
        <g opacity="0.4">
          <radialGradient id="_rgradient_67" fx="0.5000000213726793" fy="0.13577386516315215" cx="0.5" cy="0.5" r="0.27154159375000003" gradientTransform="matrix(230,0,0,60.62,13,21)" gradientUnits="userSpaceOnUse">
            <stop offset="0%" stop-opacity="1" style="stop-color:rgb(255,255,255)"/>
            <stop offset="100%" stop-opacity="0.20392157" style="stop-color:rgb(255,255,255)"/>
          </radialGradient>
          <path d=" M 53.039 21 C 16.724 21 13 23.055 13 59.371 L 13 61.43 C 13 25.114 16.724 23.057 53.039 23.057 L 97.198 23.057 L 113.625 39.518 L 202.961 39.518 C 239.276 39.518 243 45.304 243 81.62 L 243 79.563 C 243 43.247 239.276 37.461 202.961 37.461 L 113.625 37.461 L 97.198 21 L 53.039 21 Z " id="white" fill="url(#_rgradient_67)"/>
        </g>
        <g opacity="0.4">
          <radialGradient id="_rgradient_68" fx="0.48214287810452355" fy="0.2108154047287485" cx="0.5" cy="0.5" r="0.27154159375" gradientTransform="matrix(230,0,0,58.565,13,53.922)" gradientUnits="userSpaceOnUse">
            <stop offset="0%" stop-opacity="1" style="stop-color:rgb(255,255,255)"/>
            <stop offset="100%" stop-opacity="0.20392157" style="stop-color:rgb(255,255,255)"/>
          </radialGradient>
          <path d=" M 119.53 53.922 L 103.092 70.384 L 53.039 70.384 C 16.724 70.384 13 74.112 13 110.427 L 13 112.487 C 13 76.171 16.724 72.441 53.039 72.441 L 103.092 72.441 L 119.53 55.981 L 202.961 55.981 C 239.276 55.981 243 59.708 243 96.024 L 243 93.967 C 243 57.651 239.276 53.922 202.961 53.922 L 119.53 53.922 Z " id="white" fill="url(#_rgradient_68)"/>
        </g>
        <g opacity="0.1">
          <path d=" M 243 167.096 L 177.285 232.941 L 202.961 232.941 C 239.276 232.941 243 229.214 243 192.898 L 243 167.096 Z " id="white" fill="rgb(255,255,255)"/>
        </g>
        <g opacity="0.2">
          <path d=" M 13 192.898 L 13 194.955 C 13 231.271 16.724 235 53.039 235 L 202.961 235 C 239.276 235 243 231.271 243 194.955 L 243 192.898 C 243 229.214 239.276 232.941 202.961 232.941 L 53.039 232.941 C 16.724 232.941 13 229.214 13 192.898 Z " id="dark" fill="rgb(0,0,0)"/>
        </g>
      </g>
      <g opacity="0.62">
        <path d=" M 127.9 92 C 112.049 92 97.69 98.152 86.952 108.144 L 78.738 99.936 C 76.853 105.171 75.126 110.461 73.561 115.8 C 72.007 121.163 70.588 126.565 69.306 132 C 74.667 130.8 80.084 129.4 85.573 127.816 C 91.102 126.192 96.383 124.448 101.4 122.576 L 92.641 113.816 C 102.226 104.933 114.822 99.998 127.9 100 C 156.7 100 179.987 123.248 179.987 152 C 179.987 180.752 156.7 204 127.9 204 C 100.69 204.015 78.068 183.087 76.013 156 L 68 156 C 70.061 187.51 96.27 212.012 127.9 212 C 161.131 212 188 185.176 188 152 C 188 118.824 161.131 92 127.9 92 Z  M 123.893 116 L 123.893 157.656 L 143.093 176.832 L 148.767 171.168 L 131.907 154.344 L 131.907 116 L 123.893 116 Z  M 172.775 203.76 L 172.991 204.048 L 172.879 203.872 L 172.775 203.768 L 172.775 203.76 Z  M 74.932 203.8 C 74.907 203.84 74.851 203.872 74.828 203.904 L 74.715 204.08 L 74.932 203.8 Z " id="recent" fill="#333333"/>
      </g>
    </g>
  </switch>
</svg>
